!!!COM: Corelli, Arcangelo
!!!OPR: Sonata da camera
!!!OPS: 4
!!!ONM: 6
!!!OMV: 4
!!!OMD: Allegro
**kern	**fb	**kern	**kern
*part3	*part3	*part2	*part1
*staff3	*	*staff2	*staff1
*I"Violone & Cembalo	*	*I"Violino II	*I"Violino I
*clefF4	*	*clefG2	*clefG2
*k[f#c#g#]	*	*k[f#c#g#]	*k[f#c#g#]
*M3/4	*	*M3/4	*M3/4
*MM176	*	*MM176	*MM176
=1	=1	=1	=1
2BB	#	2b	8bL
.	.	.	8f#J
.	.	.	8bL
.	.	.	8dd#XJ
4r	.	4r	8cc#L
.	.	.	8ff#J
=2	=2	=2	=2
4BB	#	8bL	2dd#X
.	.	8f#J	.
4B	.	8bL	.
.	.	8dd#XJ	.
4A	.	8cc#L	4r
.	.	8ff#J	.
=3	=3	=3	=3
4G#	6	2b	8eeL
.	.	.	8bJ
4GG#	.	.	8eeL
.	.	.	8gg#J
4BB	#	4r	8ff#L
.	.	.	8bbJ
=4	=4	=4	=4
4EE	.	8eeL	2gg#
.	.	8bJ	.
4E	.	8eeL	.
.	.	8gg#J	.
4D#X	6	8ff#L	4r
.	.	8bbJ	.
=5	=5	=5	=5
4C#	.	2ee	8cc#L
.	.	.	8g#J
4E	6	.	8cc#L
.	.	.	8eeJ
4G#	#	4r	8dd#XL
.	.	.	8gg#J
=6	=6	=6	=6
4c#	.	8cc#L	2ee
.	.	8g#J	.
4E	6	8cc#L	.
.	.	8eeJ	.
4G#	#	8dd#XL	4r
.	.	8gg#J	.
=7	=7	=7	=7
4C#	.	4.ee	8gg#L
.	.	.	8eeJ
4c#	6	.	8aaL
.	.	8ee	8gg#J
4A	6	8ff#L	[4aa
.	.	8eeJ	.
=8	=8	=8	=8
4B	7 #	4.dd#X	8aaL]
.	.	.	8dd#XJ
4BB	6	.	8gg#L
.	.	8dd#	8ff#J
4B	.	8eeL	[4gg#
.	.	8dd#J	.
=9	=9	=9	=9
4A	7	4.cc#	8gg#L]
.	.	.	8cc#J
4AA	6	.	8ff#L
.	.	8cc#	8eeJ
4A	.	8dd#XL	4ff#
.	.	8cc#J	.
=10	=10	=10	=10
4.G#	#	4.b#X	4.gg#
8E	6	8g#	8gg#
4F#	5	[4cc#	(8aaL
.	.	.	8gg#J)
=11	=11	=11	=11
4C#	.	4cc#]	(8ff#L
.	.	.	8eeJ)
4G#	5 4	4.cc#	2dd#X
4GG#	#	.	.
.	.	8b#X	.
=12	=12	=12	=12
4C#	.	2cc#	8eeL
.	.	.	8gg#J
4c#	.	.	8eeL
.	.	.	8gg#J
4B#X	6	4r	8dd#XL
.	.	.	8gg#J
=13	=13	=13	=13
4c#	.	8g#L	2ee
.	.	8cc#J	.
4E	6	8g#L	.
.	.	8cc#J	.
4C#	.	8g#L	4r
.	.	8cc#J	.
=14	=14	=14	=14
4F#	#	2a#X	8cc#L
.	.	.	8ff#J
4A#X	6	.	8cc#L
.	.	.	8ff#J
4F#	.	4r	8cc#L
.	.	.	8ff#J
=15	=15	=15	=15
4B	#	8f#L	2dd#X
.	.	8bJ	.
4D#X	6	8f#L	.
.	.	8bJ	.
4BB	#	8f#L	4r
.	.	8bJ	.
=16	=16	=16	=16
4E	.	4g#	8bL
.	.	.	8eeJ
4GG#	6	8r	8bL
.	.	8b	8eeJ
4GG#	.	8g#L	8bL
.	.	8bJ	8eeJ
=17	=17	=17	=17
4AA	5	4e	8cc#L
.	.	.	8aJ
4AA	6	8r	8cc#L
.	.	8cc#	8ff#J
4AA	.	8aL	8cc#L
.	.	8cc#J	8ff#J
=18	=18	=18	=18
4BB	#	4f#	8dd#XL
.	.	.	8bJ
4BB	6	8r	8dd#L
.	.	8dd#X	8gg#J
4BB	.	8bL	8dd#L
.	.	8dd#J	8gg#J
=19	=19	=19	=19
4C#	5	4g#	8eeL
.	.	.	8cc#J
4C#	6	8r	8eeL
.	.	8ee	8aaJ
4C#	.	8aaL	8eeL
.	.	8eeJ	8aaJ
=20	=20	=20	=20
4D#X	5	4.ff#	8ff#L
.	.	.	8dd#XJ
4D#	6	.	8ff#L
.	.	8ff#	8bbJ
4D#	.	8dd#XL	8ff#L
.	.	8ff#J	8bbJ
=21	=21	=21	=21
4E	5	4b	8gg#L
.	.	.	8eeJ
4E	6	4g#	8gg#L
.	.	.	8ccc#J
4E	.	4cc#	8gg#L
.	.	.	8ccc#J
=22	=22	=22	=22
4D#X	7	4cc#	8ff#L
.	.	.	8bbJ
4D#	6	4f#	8ff#L
.	.	.	8bbJ
4G#	7	4b	8ff#L
.	.	.	8bbJ
=23	=23	=23	=23
4C#	7	4b	8eeL
.	.	.	8aaJ
4C#	6	4e	8eeL
.	.	.	8aaJ
4F#	7	4a	8eeL
.	.	.	8aaJ
=24	=24	=24	=24
2BB	7 #	4.a	4.dd#X
.	.	8b	8b
4C#	5	4g#	[4ee
=25	=25	=25	=25
4AA	7	4cc#	4ee]
2BB	5 #r4	4.f#	4.ee
.	.	8b	8dd#X
=26	=26	=26	=26
2E	.	2g#	2ee
[4D#X	6	[4f#	[4b
=27	=27	=27	=27
4D#]	.	4f#]	4b]
2C#	#6|	2e	2a#X
=28	=28	=28	=28
2BB	#	2d#X	2b
4r	.	4r	4r
=||	=||	=||	=||
*-	*-	*-	*-
!!!system-decoration: [{s1,s2},s3,s4]
!!!YEM: CC BY-NC-SA 4.0; CCARH; DCML